img/logo-symbol-1.svg

<svg fill="none" height="38" viewBox="0 0 33 38" width="33" xmlns="http://www.w3.org/2000/svg" xmlns:xlink="http://www.w3.org/1999/xlink"><clipPath id="a"><path d="m0 0h32.5504v37.561h-32.5504z"/></clipPath><g clip-path="url(#a)"><path d="m16.2577 0 16.2578 9.38642v18.77278l-16.2578 9.3863-16.2577-9.3863v-18.77278z" fill="#fff"/><g fill="#000"><path d="m27.2881 28.1643 2.6314-1.5214v-11.2508l-2.6314 1.5214z"/><path d="m25.3415 29.2897-2.5954 1.5006v-11.2508l2.5954-1.5006z"/><path d="m18.2042 33.4163v-11.2508l2.5954-1.5006v11.2509z"/><path clip-rule="evenodd" d="m16.2577 0 16.2578 9.38642v18.77278l-16.2578 9.3863-16.2577-9.3863v-18.77278zm0 .756987 15.6088 9.011753h-7.5135l-8.0953 9.01176-15.60885-9.01176zm-15.608854 11.246713.000004 15.7885 15.60885 9.0118 15.6088-9.0118v-15.7885l-15.6088 9.0117z" fill-rule="evenodd"/></g></g></svg>

<svg width="33" height="38" viewBox="0 0 33 38" fill="none" xmlns="http://www.w3.org/2000/svg">
<g clip-path="url(#clip0_3289_4185)">
<path d="M16.2577 0L32.5155 9.38642V28.1592L16.2577 37.5455L0 28.1592V9.38642L16.2577 0Z" fill="white"/>
<path d="M27.2881 28.1643L29.9195 26.6429V15.3921L27.2881 16.9135V28.1643Z" fill="black"/>
<path d="M25.3415 29.2897L22.7461 30.7903V19.5395L25.3415 18.0389V29.2897Z" fill="black"/>
<path d="M18.2042 33.4163V22.1655L20.7996 20.6649V31.9158L18.2042 33.4163Z" fill="black"/>
<path fill-rule="evenodd" clip-rule="evenodd" d="M16.2577 0L32.5155 9.38642V28.1592L16.2577 37.5455L0 28.1592V9.38642L16.2577 0ZM16.2577 0.756987L31.8665 9.76874H24.353L16.2577 18.7805L0.64885 9.76874L16.2577 0.756987ZM0.648846 12.0037L0.64885 27.7922L16.2577 36.804L31.8665 27.7922V12.0037L16.2577 21.0154L0.648846 12.0037Z" fill="black"/>
</g>
<defs>
<clipPath id="clip0_3289_4185">
<rect width="32.5504" height="37.561" fill="white"/>
</clipPath>
</defs>
</svg>
